icons/email-contact.svg

<svg width="25" height="24" viewBox="0 0 25 24" fill="none" xmlns="http://www.w3.org/2000/svg">
<path d="M4.47705 6.5C4.47705 5.94772 4.92477 5.5 5.47705 5.5H19.4771C20.0293 5.5 20.4771 5.94772 20.4771 6.5V10.5C20.4771 11.0523 20.9248 11.5 21.4771 11.5C22.0293 11.5 22.4771 11.0523 22.4771 10.5V6.5C22.4771 4.84315 21.1339 3.5 19.4771 3.5H5.47705C3.8202 3.5 2.47705 4.84315 2.47705 6.5V17.5C2.47705 19.1569 3.8202 20.5 5.47705 20.5H11.4771C12.0293 20.5 12.4771 20.0523 12.4771 19.5C12.4771 18.9477 12.0293 18.5 11.4771 18.5H5.47705C4.92477 18.5 4.47705 18.0523 4.47705 17.5V6.5Z" fill="#9AA1B4"/>
<path d="M7.56522 7.69126C7.11857 7.36643 6.49315 7.46518 6.16831 7.91183C5.84348 8.35848 5.94223 8.9839 6.38888 9.30874L10.7125 12.4532C11.7645 13.2183 13.1896 13.2183 14.2416 12.4532L18.5652 9.30874C19.0119 8.9839 19.1106 8.35848 18.7858 7.91183C18.4609 7.46518 17.8355 7.36643 17.3889 7.69126L13.0652 10.8357C12.7146 11.0908 12.2395 11.0908 11.8889 10.8357L7.56522 7.69126Z" fill="#9AA1B4"/>
<path fill-rule="evenodd" clip-rule="evenodd" d="M18.4771 19C17.3725 19 16.4771 19.8954 16.4771 21C16.4771 21.5523 16.0293 22 15.4771 22C14.9248 22 14.4771 21.5523 14.4771 21C14.4771 19.6915 15.1054 18.5297 16.0768 17.7999C15.7002 17.2985 15.4771 16.6753 15.4771 16C15.4771 14.3431 16.8202 13 18.4771 13C20.1339 13 21.4771 14.3431 21.4771 16C21.4771 16.6753 21.2539 17.2985 20.8773 17.7999C21.8487 18.5297 22.4771 19.6915 22.4771 21C22.4771 21.5523 22.0293 22 21.4771 22C20.9248 22 20.4771 21.5523 20.4771 21C20.4771 19.8954 19.5816 19 18.4771 19ZM17.4771 16C17.4771 15.4477 17.9248 15 18.4771 15C19.0293 15 19.4771 15.4477 19.4771 16C19.4771 16.5523 19.0293 17 18.4771 17C17.9248 17 17.4771 16.5523 17.4771 16Z" fill="#9AA1B4"/>
</svg>

<?xml version="1.0" encoding="utf-8"?>
<!-- Generator: Adobe Illustrator 22.1.0, SVG Export Plug-In . SVG Version: 6.00 Build 0)  -->
<svg version="1.1" id="Layer_1" xmlns="http://www.w3.org/2000/svg" xmlns:xlink="http://www.w3.org/1999/xlink" x="0px" y="0px"
	 viewBox="0 0 25 24" style="enable-background:new 0 0 25 24;" xml:space="preserve">
<style type="text/css">
	.st0{fill:#9AA1B4;}
</style>
<path class="st0" d="M4.5,6.5c0-0.6,0.4-1,1-1h14c0.6,0,1,0.4,1,1v4c0,0.6,0.4,1,1,1c0.6,0,1-0.4,1-1v-4c0-1.7-1.3-3-3-3h-14
	c-1.7,0-3,1.3-3,3v11c0,1.7,1.3,3,3,3h6c0.6,0,1-0.4,1-1s-0.4-1-1-1h-6c-0.6,0-1-0.4-1-1V6.5z"/>
<path class="st0" d="M7.6,7.7C7.1,7.4,6.5,7.5,6.2,7.9C5.8,8.4,5.9,9,6.4,9.3l4.3,3.1c1.1,0.8,2.5,0.8,3.5,0l4.3-3.1
	c0.4-0.3,0.5-1,0.2-1.4c-0.3-0.4-1-0.5-1.4-0.2l-4.3,3.1c-0.4,0.3-0.8,0.3-1.2,0L7.6,7.7z"/>
<path class="st0" d="M20.9,17.8c0.4-0.5,0.6-1.1,0.6-1.8c0-1.7-1.3-3-3-3c-1.7,0-3,1.3-3,3c0,0.7,0.2,1.3,0.6,1.8
	c-1,0.7-1.6,1.9-1.6,3.2c0,0.6,0.4,1,1,1c0.6,0,1-0.4,1-1c0-1.1,0.9-2,2-2c1.1,0,2,0.9,2,2c0,0.6,0.4,1,1,1c0.6,0,1-0.4,1-1
	C22.5,19.7,21.8,18.5,20.9,17.8z M18.5,17c-0.6,0-1-0.4-1-1s0.4-1,1-1c0.6,0,1,0.4,1,1S19,17,18.5,17z"/>
</svg>
